svgs/light/ice-skate.svg

<svg xmlns="http://www.w3.org/2000/svg" viewBox="0 0 576 512"><!-- Font Awesome Pro 6.0.0-alpha2 by @fontawesome - https://fontawesome.com License - https://fontawesome.com/license (Commercial License) --><path d="M560 416C551.201 416 544 423.199 544 432C544 458.508 522.51 480 496 480H416V464C416 455.164 408.836 448 400 448S384 455.164 384 464V480H128V464C128 455.164 120.836 448 112 448S96 455.164 96 464V480H16C7.201 480 0 487.199 0 496S7.201 512 16 512H496C540.184 512 576 476.184 576 432C576 423.199 568.801 416 560 416ZM96 416H448C483.201 416 512 387.199 512 352V315C512 270.977 482.051 232.598 439.346 221.898L320 192V16C320 7.199 312.801 0 304 0C295.201 0 288 7.199 288 16V32H281.871C222.541 32 163.756 43.328 108.674 65.371L62.166 83.98C43.947 91.273 32 108.922 32 128.547V352C32 387.25 60.75 416 96 416ZM64 128.57C64 122.035 67.977 116.156 74.043 113.719L114.439 97.516C169.627 75.375 228.539 64 288 64V128H240C231.201 128 224 135.199 224 144S231.201 160 240 160H288V192H240C231.201 192 224 199.199 224 208S231.201 224 240 224H316.125L431.625 252.875C460.057 259.984 480 285.527 480 314.832V352C480 369.602 465.6 384 448 384H96C78.4 384 64 369.602 64 352V128.57Z"/></svg>

<svg xmlns="http://www.w3.org/2000/svg" viewBox="0 0 576 512"><!--! Font Awesome Pro 6.3.0 by @fontawesome - https://fontawesome.com License - https://fontawesome.com/license (Commercial License) Copyright 2023 Fonticons, Inc. --><path d="M560 416c-8.799 0-16 7.199-16 16c0 26.51-21.49 48-48 48H416v-16c0-8.836-7.164-16-16-16s-15.1 7.164-15.1 16L384 480H128v-16C128 455.2 120.8 448 112 448s-15.1 7.164-15.1 16L96 480H16c-8.799 0-15.1 7.199-15.1 15.1S7.201 512 16 512H496c44.18 0 80-35.82 80-80C576 423.2 568.8 416 560 416zM96 416H448c35.2 0 64-28.8 64-64l.0001-37c0-44.02-30.01-82.42-72.72-93.12L320 192V16c0-8.801-7.199-16-16-16C295.2 0 288 7.199 288 16V32H281.9C222.5 32 163.8 43.33 108.7 65.37L62.17 83.98C43.95 91.27 32 108.9 32 128.5L32 352C32 387.3 60.75 416 96 416zM64 128.6c0-6.535 3.977-12.41 10.04-14.85l40.4-16.2C169.6 75.38 228.5 64 288 64v64H240C231.2 128 224 135.2 224 143.1S231.2 160 240 160H288v32H240C231.2 192 224 199.2 224 207.1S231.2 224 240 224h76.13l115.5 28.88C460.1 259.1 480 285.5 480 314.8V352c0 17.6-14.4 32-32 32H96c-17.6 0-32-14.4-32-32V128.6z"/></svg>
